X:151
T:Mucking o' Geordie's Byre
M:6/8
L:1/8
K:D
P:A
F2G|"D"ABA AFA|"D"d2e f2a|"G"g2e "D"f2d|"Em"e2d "A7"Bcd|
"D"ABA AFA|"D"d2e "G"f2g|"D"afd "A7"efe|"D"d3:|
P:B
|:e2f|"G"g2g gag|"D".fz2 f2d|"Em"e2e ede|"A"fed "A7"Bcd|
"D"ABA AFA|"D"d2e "G"f2g|"D"afd "A7"efe|"D"d3:|



